raycast/extensions/amzn-raycast-extension/assets/paper-plane.svg

<svg width="16" height="16" viewBox="0 0 16 16" fill="none" xmlns="http://www.w3.org/2000/svg">
<path d="M14.4313 1.34885C14.6996 1.53479 14.8403 1.8562 14.7899 2.17761L13.0898 13.2278C13.05 13.4854 12.8933 13.7112 12.6648 13.8387C12.4364 13.9662 12.1628 13.9822 11.9211 13.8812L8.74415 12.5611L6.9246 14.5294C6.68819 14.787 6.3163 14.872 5.98958 14.7445C5.66286 14.617 5.45035 14.3009 5.45035 13.9503V11.7296C5.45035 11.6234 5.4902 11.5224 5.56192 11.4454L10.0139 6.58706C10.1679 6.41971 10.1626 6.16205 10.0032 6.00267C9.84386 5.84329 9.5862 5.83267 9.41885 5.98408L4.01596 10.784L1.67045 9.60991C1.38889 9.46913 1.20826 9.18756 1.20029 8.87412C1.19232 8.56068 1.35701 8.26849 1.62795 8.11177L13.5281 1.31166C13.8124 1.14963 14.163 1.16557 14.4313 1.34885Z" fill="white"/>
</svg>

<svg width="16" height="16" fill="none" xmlns="http://www.w3.org/2000/svg"><path d="M14.431 1.349a.85.85 0 01.359.829l-1.7 11.05a.848.848 0 01-1.169.653l-3.177-1.32-1.82 1.968a.85.85 0 01-1.474-.579v-2.22c0-.107.04-.208.112-.285l4.452-4.858a.425.425 0 00-.595-.603l-5.403 4.8L1.67 9.61a.846.846 0 01-.47-.736.856.856 0 01.428-.762l11.9-6.8a.853.853 0 01.903.037z" fill="#fff"/></svg>
